X:233
T: Es stand ein Schloá in sterreich (13b), S. 59
N: T0121
O: Luxemburg
S: Singendes Volk, Esch-Alzette 1937 posth.]
N: REULAND; gesungen von hhh Johann Frank, 1902,
N: (13c)- Esch-Alz., Nikolaus Weis (Schler), 1921
R: "erzhlende Lieder"]
M: 3/4
L: 1/16
K: C
G2 | G2c2E6E2 | D2G2F6
G2 | G2A2A6F2 | F2E2z6
G2 | G2B2d6F2 | E2G2c4
e4 | dcBAG6F2 | A2G2z6
G2 | G2B2d6F2 | E2G2c4
e4 | dcBAG6F2 | F2E2z6

